X: 241
T:Ave verum corpus / Cujus latus / O dulcis Jesu
N: Derived from Jos2103-Ave_verum_corpus.krn
C: Josquin des Prez
%%abc-version 2.0
%%abcx-abcm2ps-target-version 5.9.1 (29 Sep 2008)
%%abc-creator hum2abc beta
%%abcx-conversion-date 2019/02/12 16:15:50
%%abc-edited-by Jesse Rodin
%%abc-edited-by Will Watson 30/06/2011
%%abcx-initial-encoding-date 2011/06/30
%%humdrum-veritas 1201112232
%%humdrum-veritas-data 59164519
%%linebreak <none>
%%barnumbers 0
L: 1/4
M: 2/1
Q: 1/2=120
V: 1 clef=treble
V: 2 clef=treble-8
V: 3 clef=treble-8
V: 4 clef=treble-8
V: 5 clef=bass
K: F
[V:1] F8- | 
[V:2] z8 | 
[V:3] z8 | 
[V:4] z8 | 
[V:5] z8 | 
[V:1] F8 | 
[V:2] z8 | 
[V:3] z8 | 
[V:4] z8 | 
[V:5] z8 | 
[V:1] G8 | 
[V:2] z8 | 
[V:3] z8 | 
[V:4] z8 | 
[V:5] z8 | 
[V:1] A6G2 | 
[V:2] z8 | 
[V:3] z8 | 
[V:4] z8 | 
[V:5] F,8- | 
[V:1] F3ED2C2 | 
[V:2] z8 | 
[V:3] z8 | 
[V:4] z8 | 
[V:5] F,8 | 
[V:1] B,3A,B,4 | 
[V:2] z8 | 
[V:3] z8 | 
[V:4] z8 | 
[V:5] G,8 | 
[V:1] A,4c3B | 
[V:2] F8- | 
[V:3] z8 | 
[V:4] z8 | 
[V:5] A,6G,2 | 
[V:1] A2G2F2E2 | 
[V:2] F8 | 
[V:3] z8 | 
[V:4] z8 | 
[V:5] F,3E,D,2C,2 | 
[V:1] D2C2B,4 | 
[V:2] G8 | 
[V:3] z8 | 
[V:4] z8 | 
[V:5] B,,2A,,2G,,4 | 
[V:1] A,4c3B | 
[V:2] A4F4- | 
[V:3] z8 | 
[V:4] F8- | 
[V:5] F,,4A,3G, | 
[V:1] A2G2F2E2 | 
[V:2] F2G2A4 | 
[V:3] z8 | 
[V:4] F8 | 
[V:5] F,2E,2D,2C,2 | 
[V:1] D2C2B,4 | 
[V:2] B2c2d2e2 | 
[V:3] z8 | 
[V:4] G8 | 
[V:5] B,,2A,,2G,,4 | 
[V:1] A,4c4- | 
[V:2] f4F4- | 
[V:3] c8- | 
[V:4] A8 | 
[V:5] F,,8 | 
[V:1] c2B2A4- | 
[V:2] F2G2A4 | 
[V:3] c8 | 
[V:4] F8- | 
[V:5] F,6E,2 | 
[V:1] A2G2F4 | 
[V:2] A4B4 | 
[V:3] d8 | 
[V:4] F8 | 
[V:5] D,8 | 
[V:1] E4C4 | 
[V:2] c6C2 | 
[V:3] e8 | 
[V:4] G8- | 
[V:5] C,8 | 
[V:1] c6B2 | 
[V:2] C4c4 | 
[V:3] c8- | 
[V:4] G8 | 
[V:5] z4C,4 | 
[V:1] A2G2F4- | 
[V:2] c3BA3G | 
[V:3] c8 | 
[V:4] F8 | 
[V:5] F,6E,2 | 
[V:1] F2G2A4 | 
[V:2] F4z2E2 | 
[V:3] d8- | 
[V:4] B4A4- | 
[V:5] D,6C,2 | 
[V:1] B8 | 
[V:2] D3CD4 | 
[V:3] d8 | 
[V:4] A2GFG4 | 
[V:5] B,,3A,,B,,4 | 
[V:1] c3BAGA2- | 
[V:2] F2EDE4 | 
[V:3] c8 | 
[V:4] A8 | 
[V:5] A,,8 | 
[V:1] A2GFG2E2 | 
[V:2] D3Cc4- | 
[V:3] f4e4- | 
[V:4] z4G4 | 
[V:5] z4C,4 | 
[V:1] F6G2 | 
[V:2] c2BAB4 | 
[V:3] e2dcd4 | 
[V:4] F8 | 
[V:5] D,4D,4 | 
[V:1] A2G4FE | 
[V:2] c4C4 | 
[V:3] e8 | 
[V:4] E8 | 
[V:5] C,8 | 
[V:1] D4z2B2 | 
[V:2] D4D4 | 
[V:3] z4d4 | 
[V:4] F6G2 | 
[V:5] B,,6A,,2 | 
[V:1] c3BAGF2- | 
[V:2] E4z4 | 
[V:3] c8 | 
[V:4] A4F4 | 
[V:5] A,,8 | 
[V:1] F2EDE2FE | 
[V:2] z8 | 
[V:3] B8 | 
[V:4] G8 | 
[V:5] z8 | 
[V:1] F4F4 | 
[V:2] z8 | 
[V:3] c6d2 | 
[V:4] F8 | 
[V:5] z4z2F,2 | 
[V:1] G4A4 | 
[V:2] z8 | 
[V:3] e4c4 | 
[V:4] z8 | 
[V:5] E,2C,2F,3E, | 
[V:1] F2A4G2- | 
[V:2] F4G4 | 
[V:3] d8 | 
[V:4] z8 | 
[V:5] D,4z2B,,2 | 
[V:1] G2F2G4 | 
[V:2] A4G2E2 | 
[V:3] c8 | 
[V:4] z8 | 
[V:5] A,,2F,,2C,4 | 
[V:1] z4z2A2 | 
[V:2] F3ED2C2 | 
[V:3] z8 | 
[V:4] F8 | 
[V:5] B,,6A,,2 | 
[V:1] B4G4 | 
[V:2] D2F4E2 | 
[V:3] z8 | 
[V:4] G8 | 
[V:5] G,,3F,,G,,4 | 
[V:1] c6B2 | 
[V:2] F6G2 | 
[V:3] z8 | 
[V:4] A8 | 
[V:5] F,,4F,4- | 
[V:1] A3BG2E2 | 
[V:2] A4z4 | 
[V:3] c8 | 
[V:4] F4G4 | 
[V:5] F,2E,D,E,4 | 
[V:1] F4D4 | 
[V:2] A4F4 | 
[V:3] d8 | 
[V:4] F3GA2B2 | 
[V:5] D,8 | 
[V:1] G6F2 | 
[V:2] G4E4 | 
[V:3] e8 | 
[V:4] c3B/A/G2c2- | 
[V:5] C,8 | 
[V:1] E3FD4 | 
[V:2] z2A2B4 | 
[V:3] c4d4 | 
[V:4] cBA4G2 | 
[V:5] C,3D,B,,4 | 
[V:1] A6GF | 
[V:2] c6BA | 
[V:3] c3de2f2 | 
[V:4] A8 | 
[V:5] A,,8 | 
[V:1] ED/C/G3FE2- | 
[V:2] G3ABAGF | 
[V:3] g3f/e/d2g2- | 
[V:4] z8 | 
[V:5] z2C,2B,,2C,2- | 
[V:1] EDC4B,2 | 
[V:2] EFG4F2 | 
[V:3] gfe4d2 | 
[V:4] z8 | 
[V:5] C,2C,2D,2D,2 | 
[V:1] C4z2E2 | 
[V:2] G2CDEFGA | 
[V:3] e8 | 
[V:4] z8 | 
[V:5] C,4z2C,2 | 
[V:1] D2D2E4 | 
[V:2] Bcd4c2- | 
[V:3] z8 | 
[V:4] G8 | 
[V:5] B,,2B,,2C,4 | 
[V:1] F2D2E4 | 
[V:2] c2=B2c4 | 
[V:3] z8 | 
[V:4] F4E4 | 
[V:5] D,2D,2C,4 | 
[V:1] z2D2D2C2 | 
[V:2] z8 | 
[V:3] z8 | 
[V:4] F8 | 
[V:5] z2B,,2B,,2A,,2 | 
[V:1] D3EFGA2- | 
[V:2] z2B2B2A2- | 
[V:3] d8 | 
[V:4] F8- | 
[V:5] B,,3C,D,E,F,2- | 
[V:1] AGFEF2ED | 
[V:2] ABc2d4 | 
[V:3] c4B4 | 
[V:4] F8 | 
[V:5] F,2E,2D,4 | 
[V:1] E2F4E2 | 
[V:2] z4z2G2 | 
[V:3] c8 | 
[V:4] G8 | 
[V:5] C,8 | 
[V:1] F8- | 
[V:2] A4A4- | 
[V:3] c8- | 
[V:4] F8- | 
[V:5] z2F,,2F,,3G,, | 
[V:1] F8- | 
[V:2] A4A4 | 
[V:3] c8 | 
[V:4] F8- | 
[V:5] A,,4F,,4 | 
[V:1] F8- | 
[V:2] B6A2 | 
[V:3] d8 | 
[V:4] F8- | 
[V:5] B,,6F,,2 | 
[V:1] F8 ||  
[V:2] A8 ||  
[V:3] c8 ||  
[V:4] F8 ||  
[V:5] F,,8 ||  
[V:1] [M:2/1]z8 | 
[V:2] [M:2/1]z8 | 
[V:3] [M:2/1]z8 | 
[V:4] [M:2/1]z8 | 
[V:5] [M:2/1]A,,8 | 
[V:1] z8 | 
[V:2] z8 | 
[V:3] z8 | 
[V:4] z8 | 
[V:5] C,8 | 
[V:1] z8 | 
[V:2] A8 | 
[V:3] z8 | 
[V:4] z8 | 
[V:5] D,6C,B,, | 
[V:1] z8 | 
[V:2] c8 | 
[V:3] z8 | 
[V:4] z8 | 
[V:5] A,,2F,,2F,3E, | 
[V:1] z8 | 
[V:2] d8 | 
[V:3] z8 | 
[V:4] z8 | 
[V:5] D,2C,2B,,4 | 
[V:1] A8 | 
[V:2] c8 | 
[V:3] z8 | 
[V:4] z8 | 
[V:5] A,,6G,,F,, | 
[V:1] c8 | 
[V:2] c3BAGc2 | 
[V:3] z8 | 
[V:4] z8 | 
[V:5] F,,4F,3E, | 
[V:1] d8 | 
[V:2] B2A4G2 | 
[V:3] z8 | 
[V:4] z8 | 
[V:5] D,2C,2B,,3A,, | 
[V:1] c3BA2GF | 
[V:2] A4F4 | 
[V:3] z8 | 
[V:4] z4A4 | 
[V:5] F,,2F,3E,D,2 | 
[V:1] E2F4ED | 
[V:2] G2A4G2 | 
[V:3] z8 | 
[V:4] c4d4 | 
[V:5] C,2A,,2B,,4 | 
[V:1] F4E4 | 
[V:2] A8 | 
[V:3] z4e4 | 
[V:4] c8 | 
[V:5] A,,8 | 
[V:1] DCD2F4 | 
[V:2] G3FD4 | 
[V:3] g4a4 | 
[V:4] B4A4 | 
[V:5] z2G,4F,2 | 
[V:1] E2D4C2 | 
[V:2] z8 | 
[V:3] g8 | 
[V:4] B4G4 | 
[V:5] G,4E,4 | 
[V:1] DEFGABcA | 
[V:2] z2d4c2 | 
[V:3] f4e4 | 
[V:4] A8 | 
[V:5] D,4A,,4 | 
[V:1] B2A4G2 | 
[V:2] d4B4 | 
[V:3] f4d4 | 
[V:4] z8 | 
[V:5] z8 | 
[V:1] A4c4 | 
[V:2] A2A4A2 | 
[V:3] e8 | 
[V:4] z8 | 
[V:5] z2A,,4A,,2 | 
[V:1] B2A4G2 | 
[V:2] G2E2F2G2 | 
[V:3] z8 | 
[V:4] z4B4 | 
[V:5] B,,2C,2D,2E,2 | 
[V:1] F2D2F4 | 
[V:2] A2B2c4 | 
[V:3] z8 | 
[V:4] A2G2F4 | 
[V:5] F,2G,2A,4 | 
[V:1] z8 | 
[V:2] c3BAGFD | 
[V:3] z4f4 | 
[V:4] E4F4 | 
[V:5] A,,4z2D,2 | 
[V:1] z4A4 | 
[V:2] E2G4F2- | 
[V:3] e2d2c4 | 
[V:4] G4A2F2 | 
[V:5] C,2B,,2A,,4 | 
[V:1] B4A4- | 
[V:2] F2E2z2A2- | 
[V:3] B4c4 | 
[V:4] G4F4 | 
[V:5] G,,2G,2A,2F,2- | 
[V:1] A2G2G2F2 | 
[V:2] A2B2G2A2 | 
[V:3] d4e2c2 | 
[V:4] z8 | 
[V:5] F,2G,2E,2F,2 | 
[V:1] F4z2E2 | 
[V:2] F3GABc2- | 
[V:3] d4c4 | 
[V:4] B4A2G2 | 
[V:5] B,,4z2C,2 | 
[V:1] F2D2E4 | 
[V:2] c2B2c4 | 
[V:3] z8 | 
[V:4] F4E4 | 
[V:5] D,4C,4 | 
[V:1] D4z4 | 
[V:2] A4z4 | 
[V:3] f4e2d2 | 
[V:4] F4G4 | 
[V:5] D,4C,2B,,2 | 
[V:1] z4F4 | 
[V:2] z8 | 
[V:3] c4B4 | 
[V:4] A4F4 | 
[V:5] A,,2C,2D,4 | 
[V:1] E4F4 | 
[V:2] z2G2A2A2 | 
[V:3] c4d4 | 
[V:4] G4F4 | 
[V:5] C,4z2F,2- | 
[V:1] G4F4 | 
[V:2] G4A3G | 
[V:3] e4c4 | 
[V:4] z8 | 
[V:5] F,2E,2F,3E, | 
[V:1] F2F2EDE2 | 
[V:2] A2B2G4 | 
[V:3] d4c4 | 
[V:4] z8 | 
[V:5] D,2B,,2C,4 | 
[V:1] F8- | 
[V:2] F4z2A2 | 
[V:3] z8 | 
[V:4] A8 | 
[V:5] F,,4z2F,2 | 
[V:1] F8 | 
[V:2] A4B4 | 
[V:3] z8 | 
[V:4] c4d4 | 
[V:5] F,4B,,4 | 
[V:1] z4E4- | 
[V:2] G4z2c2 | 
[V:3] e8 | 
[V:4] c4z4 | 
[V:5] C,8- | 
[V:1] E4F4 | 
[V:2] c4F4 | 
[V:3] g4a4 | 
[V:4] z8 | 
[V:5] C,4z4 | 
[V:1] E4E4 | 
[V:2] G8 | 
[V:3] g4z4 | 
[V:4] z4c3B | 
[V:5] C,8 | 
[V:1] F3E/D/E3D | 
[V:2] z8 | 
[V:3] z8 | 
[V:4] AGB2A2c2- | 
[V:5] D,3C,/B,,/C,2A,,2 | 
[V:1] E2F2D4 | 
[V:2] z8 | 
[V:3] z4g3f | 
[V:4] cBA4G2 | 
[V:5] C,2D,2B,,4 | 
[V:1] C4z2B2 | 
[V:2] z2F2G3F/E/ | 
[V:3] edf2e2g2- | 
[V:4] A4z4 | 
[V:5] z8 | 
[V:1] B2c4BA | 
[V:2] G2A2F4 | 
[V:3] gfe4d2 | 
[V:4] z8 | 
[V:5] z8 | 
[V:1] G2C2D3E | 
[V:2] E4F3G | 
[V:3] e4z4 | 
[V:4] z4B4 | 
[V:5] z2C,2B,,4 | 
[V:1] F2G4F2- | 
[V:2] ABc4B2 | 
[V:3] z8 | 
[V:4] A2G2A2F2 | 
[V:5] F,2E,2D,4 | 
[V:1] F2E2FGAB | 
[V:2] c4z2c2- | 
[V:3] z4f4 | 
[V:4] G4F4 | 
[V:5] C,4F,,4 | 
[V:1] c2d4c2- | 
[V:2] c2B2A4 | 
[V:3] e2d2e2c2 | 
[V:4] z8 | 
[V:5] z8 | 
[V:1] c2=B2c4- | 
[V:2] G4z2c2 | 
[V:3] d4c4 | 
[V:4] B4A2G2 | 
[V:5] z4z2C,2 | 
[V:1] c2BAG3E | 
[V:2] e2d4c2- | 
[V:3] z8 | 
[V:4] A2F2G4 | 
[V:5] C,2D,2E,2C,2 | 
[V:1] F2D2E2F2- | 
[V:2] c2B2c2d2 | 
[V:3] f4e2d2 | 
[V:4] F4z4 | 
[V:5] D,4C,2B,,2 | 
[V:1] F2E2F4 | 
[V:2] c4z4 | 
[V:3] e2c2d4 | 
[V:4] z4B4- | 
[V:5] C,4z4 | 
[V:1] z4c4 | 
[V:2] z4F4- | 
[V:3] c4z4 | 
[V:4] B2AGA4 | 
[V:5] F,8 | 
[V:1] d8 | 
[V:2] F4D4 | 
[V:3] z4f4- | 
[V:4] B6A2 | 
[V:5] B,,8 | 
[V:1] c8 | 
[V:2] E8 | 
[V:3] f2ede4 | 
[V:4] G3FG4 | 
[V:5] C,8 | 
[V:1] A8 | 
[V:2] A8 | 
[V:3] f6e2 | 
[V:4] F8- | 
[V:5] D,6C,2 | 
[V:1] B6B2 | 
[V:2] D8 | 
[V:3] d3cd4 | 
[V:4] F8- | 
[V:5] B,,3A,,B,,4 | 
[V:1] A8 ||  
[V:2] A8 ||  
[V:3] c8 ||  
[V:4] F8 ||  
[V:5] F,,8 ||  
[V:1] [M:2/1]F8- | 
[V:2] [M:2/1]A8 | 
[V:3] [M:2/1]z8 | 
[V:4] [M:2/1]z8 | 
[V:5] [M:2/1]F,6E,2 | 
[V:1] F8 | 
[V:2] A4B4 | 
[V:3] z8 | 
[V:4] F8 | 
[V:5] D,3C,D,4 | 
[V:1] E8 | 
[V:2] c4C4 | 
[V:3] c8 | 
[V:4] G8 | 
[V:5] C,4E,4 | 
[V:1] F8 | 
[V:2] F3EDCF2- | 
[V:3] d8 | 
[V:4] A8 | 
[V:5] D,4F,4 | 
[V:1] G8 | 
[V:2] F2EDE4 | 
[V:3] e8 | 
[V:4] G6A2 | 
[V:5] C,8 | 
[V:1] z4F4 | 
[V:2] F4F4- | 
[V:3] d6e2 | 
[V:4] B4A4- | 
[V:5] B,,4D,4- | 
[V:1] A4G4 | 
[V:2] F2E2C4 | 
[V:3] f4e4- | 
[V:4] A2GFG4 | 
[V:5] D,4E,4 | 
[V:1] F8 | 
[V:2] z2c2A2F2 | 
[V:3] e2dcd4 | 
[V:4] A8 | 
[V:5] F,8 | 
[V:1] G8 | 
[V:2] c8 | 
[V:3] e8 | 
[V:4] z8 | 
[V:5] C,8 | 
[V:1] A8 | 
[V:2] A8 | 
[V:3] z8 | 
[V:4] z8 | 
[V:5] F,6E,2 | 
[V:1] F8 | 
[V:2] A4B4 | 
[V:3] z8 | 
[V:4] F8 | 
[V:5] D,3C,D,4 | 
[V:1] E8 | 
[V:2] c4C4 | 
[V:3] c8 | 
[V:4] G8 | 
[V:5] C,4E,4 | 
[V:1] F8 | 
[V:2] F3EDCF2- | 
[V:3] d8 | 
[V:4] A8 | 
[V:5] D,4F,4 | 
[V:1] G8 | 
[V:2] F2EDE4 | 
[V:3] e8 | 
[V:4] G6A2 | 
[V:5] C,8 | 
[V:1] z4F4 | 
[V:2] F4F4- | 
[V:3] d6e2 | 
[V:4] B4A4- | 
[V:5] B,,4D,4- | 
[V:1] A4G4 | 
[V:2] F2D2C4 | 
[V:3] f4e4- | 
[V:4] A2GFG4 | 
[V:5] D,4E,4 | 
[V:1] F8 | 
[V:2] z2c2A2F2 | 
[V:3] e2dcd4 | 
[V:4] A8 | 
[V:5] F,8 | 
[V:1] G8 | 
[V:2] c6BA | 
[V:3] e8 | 
[V:4] z8 | 
[V:5] C,8 | 
[V:1] A6GA | 
[V:2] A3Bc2d2 | 
[V:3] z8 | 
[V:4] z8 | 
[V:5] z4F,4 | 
[V:1] B2G2A2GF | 
[V:2] B4A4 | 
[V:3] z8 | 
[V:4] z4c4 | 
[V:5] G,4F,4 | 
[V:1] G2F4E2 | 
[V:2] B4G4 | 
[V:3] z4g4 | 
[V:4] d4c4 | 
[V:5] B,,4C,4 | 
[V:1] F4z4 | 
[V:2] c2C2D2E2- | 
[V:3] a4g4 | 
[V:4] F4G4 | 
[V:5] z2A,,2B,,2C,2 | 
[V:1] c4B4 | 
[V:2] EDE2D4 | 
[V:3] c4d4 | 
[V:4] A4G4- | 
[V:5] A,,4B,,2G,,2 | 
[V:1] c3Ad4- | 
[V:2] CDEFGABc | 
[V:3] e4d4- | 
[V:4] G2A2B4 | 
[V:5] C,4B,,4- | 
[V:1] d4d4 | 
[V:2] d3cB2A2- | 
[V:3] d2e2f4 | 
[V:4] G4F4 | 
[V:5] B,,2C,2D,4 | 
[V:1] z2B2c2A2- | 
[V:2] A2G2A4 | 
[V:3] d4c4 | 
[V:4] z8 | 
[V:5] B,,4A,,4 | 
[V:1] ABc2B2G2 | 
[V:2] z2A2B4 | 
[V:3] z8 | 
[V:4] z8 | 
[V:5] z2F,2G,4 | 
[V:1] A2GFG2F2- | 
[V:2] A4B4 | 
[V:3] z8 | 
[V:4] c4d4 | 
[V:5] F,4B,,4 | 
[V:1] F2E2F4 | 
[V:2] G4z2D2 | 
[V:3] g4a4 | 
[V:4] c4F4 | 
[V:5] C,4z4 | 
[V:1] E4G4 | 
[V:2] E4C4 | 
[V:3] g4c4 | 
[V:4] G8 | 
[V:5] C,4E,4 | 
[V:1] F8 | 
[V:2] F4D4 | 
[V:3] d8 | 
[V:4] A8 | 
[V:5] D,4F,4 | 
[V:1] G4z4 | 
[V:2] z4E4 | 
[V:3] e8 | 
[V:4] G4A4 | 
[V:5] E,3D,C,4 | 
[V:1] z4G4 | 
[V:2] F2G3AB2 | 
[V:3] d4e4 | 
[V:4] B8 | 
[V:5] B,,2G,,2G,4 | 
[V:1] A6F2 | 
[V:2] c4d3c | 
[V:3] f8 | 
[V:4] A8 | 
[V:5] F,4D,4 | 
[V:1] G6E2 | 
[V:2] BAB2c3B | 
[V:3] e8 | 
[V:4] G8 | 
[V:5] E,4C,4 | 
[V:1] F6D2 | 
[V:2] AGA2B3A | 
[V:3] d8 | 
[V:4] F4F4- | 
[V:5] D,4B,,4 | 
[V:1] E8 | 
[V:2] A2GFG4 | 
[V:3] c4c4- | 
[V:4] F2EDE4 | 
[V:5] C,8 | 
[V:1] D3CF4- | 
[V:2] z2F2F2D2 | 
[V:3] c2BAB4 | 
[V:4] F8 | 
[V:5] D,8 | 
[V:1] F2EDE4 | 
[V:2] E4C2c2- | 
[V:3] c8 | 
[V:4] G8 | 
[V:5] C,8 | 
[V:1] F8- | 
[V:2] cBAGA4- | 
[V:3] d8 | 
[V:4] F8- | 
[V:5] F,,8- | 
[V:1] F8 |]  
[V:2] A8 |]  
[V:3] c8 |]  
[V:4] F8 |]  
[V:5] F,,8 |]  



